X: 356
T:The Boys of Glanlough
M:C
L:1/8
B:O'Neill's 356
N:"Spirited."
N:"collected by F. O'Neill"
Z:Transcribed by Chris Falt, cfalt@trytel.com
K:Gm
(G/2A/2) \
|Bcdg ce dc/2A/2|GBAG F3G/2A/2|Bcde fdce|dggf g3G/2A/2|
Bcdg ce dc/2A/2|GBAG F3G/2A/2|Bcdg gddB|dcBGG G2z||
(G/2A/2) \
|BABc dedc|db a/2g/2f/2a/2 g3G/2A/2|BABc d2gf|dedc B2cd|
dggf dBdcA|GBAG F3G/2A/2|Bcdg gddB|dcBGG G2z||
